src/img/diagnostico.svg

<?xml version="1.0"?>
<svg xmlns="http://www.w3.org/2000/svg" xmlns:xlink="http://www.w3.org/1999/xlink" xmlns:svgjs="http://svgjs.com/svgjs" version="1.1" width="512" height="512" x="0" y="0" viewBox="0 0 62 62.26" style="enable-background:new 0 0 512 512" xml:space="preserve" class=""><g><g xmlns="http://www.w3.org/2000/svg"><path d="m62 17.26h-10.972l-1.527-7.316-8.787-1.87c-2.875-.612-5.609-1.867-7.908-3.627l-5.806-4.447-5.806 4.447c-2.299 1.76-5.033 3.015-7.908 3.627l-8.787 1.87-3.984 19.073c-.342 1.643-.515 3.321-.515 4.989 0 8.072 4.053 15.735 10.84 20.5l6.906 4.851c2.704 1.899 5.903 2.903 9.254 2.903s6.55-1.003 9.254-2.902l6.905-4.85c1.365-.959 2.631-2.054 3.781-3.248h15.06zm-21.702-7.23 7.512 1.598 1.176 5.631h-2.062l-.836-3.975-6.183-1.306c-3.517-.743-6.862-2.267-9.676-4.405l-2.229-1.695v-2.592l3.589 2.75c2.533 1.939 5.545 3.32 8.709 3.994zm-14.298 17.23h-18.984l2.586-12.288 4.906-1.036c3.804-.805 7.426-2.454 10.474-4.771l1.018-.774zm-19.605 2.953.201-.954h25.404v2h-25.769c.053-.348.091-.7.164-1.046zm25.605 3.047v2h-25.954c-.028-.417-.046-.834-.046-1.254 0-.248.029-.497.039-.746zm0 4v2h-25.221c-.196-.657-.359-1.324-.482-2zm-6 4v14.946c-1.699-.166-3.308-.747-4.698-1.717l-6.957-4.851c-3.089-2.153-5.434-5.078-6.842-8.378zm2 0h2v10h7.326l-4.628 3.229c-1.391.97-2.999 1.551-4.698 1.717zm6-11.196 5.622 3.514c.236.148.378.402.378.682s-.142.534-.378.682l-5.622 3.513zm-4-2.804h-2v-18.869l1.019.775c3.048 2.316 6.669 3.966 10.473 4.771l4.907 1.037.481 2.287h-14.88zm-18.011 25.61c-6.255-4.391-9.989-11.443-9.989-18.864 0-1.531.159-3.072.473-4.581l3.717-17.797 7.512-1.598c3.164-.674 6.176-2.055 8.709-3.995l3.589-2.749v2.593l-2.229 1.696c-2.813 2.139-6.16 3.662-9.677 4.406l-6.182 1.305-3.474 16.516c-.291 1.386-.438 2.8-.438 4.204 0 6.8 3.439 13.257 9.2 17.272l6.957 4.851c1.728 1.205 3.731 1.916 5.843 2.087v2.006c-2.57-.177-5.009-1.03-7.104-2.502zm30.02.001-6.905 4.85c-2.094 1.471-4.533 2.325-7.104 2.502v-2.006c2.112-.171 4.115-.883 5.843-2.087l6.957-4.851.026-.019h3.225c-.651.571-1.331 1.111-2.042 1.611zm17.991-3.611h-28v-8h1.287l7.396-4.622c.825-.516 1.317-1.405 1.317-2.378s-.492-1.862-1.317-2.378l-7.396-4.622h-1.287v-8h28z" fill="#29d705" data-original="#000000" style="" class=""/><path d="m50 47.26h8v-8h-8zm2-6h4v4h-4z" fill="#29d705" data-original="#000000" style="" class=""/><path d="m50 37.26h8v-8h-8zm2-6h4v4h-4z" fill="#29d705" data-original="#000000" style="" class=""/><path d="m36 45.26h12v2h-12z" fill="#29d705" data-original="#000000" style="" class=""/><path d="m36 41.26h12v2h-12z" fill="#29d705" data-original="#000000" style="" class=""/><path d="m36 27.26h2v-2h2v-2h-2v-2h-2v2h-2v2h2z" fill="#29d705" data-original="#000000" style="" class=""/><path d="m44 21.26h14v2h-14z" fill="#29d705" data-original="#000000" style="" class=""/><path d="m44 25.26h14v2h-14z" fill="#29d705" data-original="#000000" style="" class=""/></g></g></svg>

<svg id="diagnostico" xmlns="http://www.w3.org/2000/svg" width="62" height="62.26" viewBox="0 0 62 62.26">
  <g id="Grupo_1" data-name="Grupo 1">
    <path id="Trazado_1" data-name="Trazado 1" d="M62,17.26H51.028L49.5,9.944l-8.787-1.87a19.9,19.9,0,0,1-7.908-3.627L27,0,21.194,4.447a19.9,19.9,0,0,1-7.908,3.627L4.5,9.944.515,29.017A24.528,24.528,0,0,0,0,34.006a25.169,25.169,0,0,0,10.84,20.5l6.906,4.851a16.2,16.2,0,0,0,18.508,0l6.9-4.85A26.074,26.074,0,0,0,46.94,51.26H62ZM40.3,10.03l7.512,1.6,1.176,5.631H46.924l-.836-3.975-6.183-1.306a24.43,24.43,0,0,1-9.676-4.405L28,5.878V3.286l3.589,2.75A21.922,21.922,0,0,0,40.3,10.03ZM26,27.26H7.016L9.6,14.972l4.906-1.036A26.454,26.454,0,0,0,24.982,9.165L26,8.391ZM6.4,30.213l.2-.954H32v2H6.231c.053-.348.091-.7.164-1.046ZM32,33.26v2H6.046C6.018,34.843,6,34.426,6,34.006c0-.248.029-.5.039-.746Zm0,4v2H6.779a18.72,18.72,0,0,1-.482-2Zm-6,4V56.206a9.845,9.845,0,0,1-4.7-1.717l-6.957-4.851A19.614,19.614,0,0,1,7.5,41.26Zm2,0h2v10h7.326L32.7,54.489A9.849,9.849,0,0,1,28,56.206Zm6-11.2,5.622,3.514a.8.8,0,0,1,0,1.364L34,38.455Zm-4-2.8H28V8.391l1.019.775a26.464,26.464,0,0,0,10.473,4.771L44.4,14.974l.481,2.287H30ZM11.989,52.87A23.167,23.167,0,0,1,2,34.006a22.531,22.531,0,0,1,.473-4.581l3.717-17.8,7.512-1.6a21.91,21.91,0,0,0,8.709-3.995L26,3.286V5.879l-2.229,1.7a24.429,24.429,0,0,1-9.677,4.406L7.912,13.286,4.438,29.8A20.5,20.5,0,0,0,4,34.006a21.162,21.162,0,0,0,9.2,17.272l6.957,4.851A11.841,11.841,0,0,0,26,58.216v2.006a13.968,13.968,0,0,1-7.1-2.5Zm30.02,0-6.9,4.85a13.971,13.971,0,0,1-7.1,2.5V58.217a11.851,11.851,0,0,0,5.843-2.087L40.8,51.279l.026-.019h3.225a24.291,24.291,0,0,1-2.042,1.611ZM60,49.26H32v-8h1.287l7.4-4.622a2.805,2.805,0,0,0,0-4.756l-7.4-4.622H32v-8H60Z" fill="#29d705"/>
    <path id="Trazado_2" data-name="Trazado 2" d="M50,47.26h8v-8H50Zm2-6h4v4H52Z" fill="#29d705"/>
    <path id="Trazado_3" data-name="Trazado 3" d="M50,37.26h8v-8H50Zm2-6h4v4H52Z" fill="#29d705"/>
    <path id="Trazado_4" data-name="Trazado 4" d="M36,45.26H48v2H36Z" fill="#29d705"/>
    <path id="Trazado_5" data-name="Trazado 5" d="M36,41.26H48v2H36Z" fill="#29d705"/>
    <path id="Trazado_6" data-name="Trazado 6" d="M36,27.26h2v-2h2v-2H38v-2H36v2H34v2h2Z" fill="#29d705"/>
    <path id="Trazado_7" data-name="Trazado 7" d="M44,21.26H58v2H44Z" fill="#29d705"/>
    <path id="Trazado_8" data-name="Trazado 8" d="M44,25.26H58v2H44Z" fill="#29d705"/>
  </g>
</svg>
